X:12
T:Branle des Pois
C:Thoinot Arbeau
B:L'Orchesographie
M:C|
L:1/8
K:C
|: c2 cd | e2 ee | fe dd | e2 A2 :|
|: AB G2 | AB c2 |1 AB cd cB BA :|2 AB cd cB A2 ||
